X: 8824
T: Cuil Aodha, The
R: jig
M: 6/8
K: Dmajor
B|:AGF GFE|DED F2G|AGF GED|CA,A, GFE|
DED DCD|E^DE cde|dcA GEA|1 DED D2B:|2 DED DFG||
|:A2d dcd|eAB cde|dcA G2 A|GED CDE|
D2d dcd|eAB cde|dcA GEA|DED D3:|

